X: 2
T: The Jig Runrig
R: jig
M: 6/8
L: 1/8
K: Dmaj
|fe|:d3 BAA|FAA BAA|
Bdd AAA|fee efe|d3 BAA|FAA BAA
[1 Bdd Aff| edd dfe :|2 Bdd Aff|edd dag|
|: faa eaa|daa caa|Bdd AAA|fee eag|
[1 faa eaa|daa caa|Bdd Aff|edd dag:|
[2 d3 BAA|FAA BAA| Bdd Aff| edd dBA||


Tune 1827	Setting 1827

